icons/expand-17.svg

<svg width="16" height="17" viewBox="0 0 16 17" fill="none" xmlns="http://www.w3.org/2000/svg">
<path d="M6.38178 3.49451H3.1923C3.08608 3.49451 3 3.58061 3 3.68681V6.87633C3 7.04765 3.20715 7.13345 3.3283 7.0123L4.51513 5.82549L7.18968 8.50006L4.51513 11.1746L3.3283 9.98782C3.20715 9.86667 3 9.95247 3 10.1238L3 13.3133C3 13.4195 3.08608 13.5056 3.1923 13.5056H6.38178C6.55317 13.5056 6.63893 13.2985 6.51778 13.1773L5.33096 11.9905L7.99999 9.3215L10.669 11.9905L9.4822 13.1773C9.36105 13.2985 9.44682 13.5056 9.6182 13.5056H12.8077C12.9139 13.5056 13 13.4195 13 13.3133V10.1238C13 9.95247 12.7928 9.86667 12.6717 9.98782L11.4849 11.1746L8.81031 8.50006L11.4849 5.82549L12.6717 7.0123C12.7928 7.13345 13 7.04765 13 6.87633V3.68681C13 3.58061 12.9139 3.49451 12.8077 3.49451H9.6182C9.44682 3.49451 9.36105 3.70165 9.4822 3.82279L10.669 5.00961L7.99999 7.67862L5.33096 5.00961L6.51778 3.82279C6.63893 3.70165 6.55317 3.49451 6.38178 3.49451Z" fill="#272431"/>
</svg>

<svg xmlns="http://www.w3.org/2000/svg" width="16" height="17" viewBox="0 0 16 17"><path d="M6.382 3.495h-3.19A.192.192 0 003 3.687v3.19c0 .17.207.256.328.135l1.187-1.187L7.19 8.5l-2.675 2.675-1.187-1.187a.192.192 0 00-.328.136v3.19c0 .105.086.192.192.192h3.19a.192.192 0 00.136-.329L5.33 11.991 8 9.32l2.669 2.67-1.187 1.186a.192.192 0 00.136.329h3.19a.192.192 0 00.192-.193v-3.19a.192.192 0 00-.328-.135l-1.187 1.187L8.81 8.5l2.675-2.675 1.187 1.187A.192.192 0 0013 6.876v-3.19a.192.192 0 00-.192-.191h-3.19a.192.192 0 00-.136.328L10.67 5.01 8 7.679l-2.669-2.67 1.187-1.186a.192.192 0 00-.136-.328z"/></svg>
